modules/feathericon/icons/flag.svg

<?xml version="1.0" encoding="UTF-8"?>
<svg width="24px" height="24px" viewBox="0 0 24 24" version="1.1" xmlns="http://www.w3.org/2000/svg" xmlns:xlink="http://www.w3.org/1999/xlink">
    <!-- Generator: sketchtool 52.2 (67145) - http://www.bohemiancoding.com/sketch -->
    <title>flag</title>
    <desc>Created with sketchtool.</desc>
    <g id="event" stroke="none" stroke-width="1" fill="none" fill-rule="evenodd">
        <g id="flag" fill="#000000">
            <path d="M6,12.000014 L6,21.0000014 C6,21.5522854 5.55228475,22 5,22 C4.44771525,22 4,21.5522854 4,21.0000014 C4,9.66666237 4,3.99999286 4,3.99999286 C4,2.89999449 4.9000001,2.00002791 6,2 C6,2 12,2 12,2.00002791 C13.1000004,2.00002791 13.9986388,2.89999449 13.9986388,4.00002512 C13.9986388,4.00002512 15.3324259,4.00002512 18,4.00002512 C19.1045695,4.00002512 20,4.89545437 20,6.00002233 L20,12.000014 C20,13.1045819 19.1045695,14.0000112 18,14.0000112 C14.6666667,14.0000112 13,14.0000112 13,14.0000112 C11.8999996,14.0000112 11,13.1000004 11.0033326,12.000014 C11.0033326,12.000014 9.33555504,12.000014 6,12.000014 Z M6,4.00002512 L6,10.0000167 L13,10.0000167 L13,12.000014 L18.0023771,12.000014 L18.0023771,6.00002233 L12,6.00002233 L12,4.00002512 L6,4.00002512 Z" id="Shape"></path>
        </g>
    </g>
</svg>

<svg width="24" height="24" viewBox="0 0 24 24" xmlns="http://www.w3.org/2000/svg"><path d="M6 12v9a1 1 0 0 1-2 0V4c0-1.1.9-2 2-2h6c1.1 0 1.999.9 1.999 2H18a2 2 0 0 1 2 2v6a2 2 0 0 1-2 2h-5a2 2 0 0 1-1.997-2H6zm0-8v6h7v2h5.002V6H12V4H6z" fill="#000" fill-rule="evenodd"/></svg>
